X: 23404
T: Leprechaun Step, The
R: mazurka
M: 3/4
K: Eminor
EB BA cB|EB BA B2|EB BA cB|AG FG AB|
EB BA cB|EB BA B2|EB BA cB|AG FG AF||
BE EF GE|FE DE F2|EB BA cB|AG FG AF|
BE EF GE|FE DE F2|EB BA cB|AG FG AF||

